X:841
M:C|
L:1/8
K:D
|:f|d<d f>d g>e=c>e|d<d f>d a>df>d|1 a>df>d ge=ce|D<d A>F D/D/D D:|2
a>df>d g>e=c>e|d<b a>f d/d/d d||

